Sources/FrostedUI/Resources/Icons.xcassets/mobilePhone16.imageset/mobile-phone-16.svg

<svg width="16" height="16" viewBox="0 0 16 16" fill="none" xmlns="http://www.w3.org/2000/svg" data-fui-icon="true">
  <path
    d="M10.166 0.416992C11.6848 0.416992 12.916 1.64822 12.916 3.16699V12.834C12.9156 14.3525 11.6846 15.584 10.166 15.584H5.83301C4.31463 15.5838 3.08338 14.3524 3.08301 12.834V3.16699C3.08301 1.64833 4.3144 0.41719 5.83301 0.416992H10.166ZM5.83301 1.91699C5.14282 1.91719 4.58301 2.47676 4.58301 3.16699V12.834C4.58338 13.5239 5.14305 14.0838 5.83301 14.084H10.166C10.8562 14.084 11.4156 13.5241 11.416 12.834V3.16699C11.416 2.47663 10.8564 1.91699 10.166 1.91699H5.83301ZM9.5 11.6465C9.91406 11.6467 10.25 11.9824 10.25 12.3965C10.2496 12.8103 9.91383 13.1463 9.5 13.1465H6.5C6.08618 13.1463 5.75037 12.8103 5.75 12.3965C5.75 11.9824 6.08595 11.6467 6.5 11.6465H9.5Z"
    fill="currentColor"
  />
</svg>

<svg xmlns="http://www.w3.org/2000/svg" width="16" height="16" fill="none" data-fui-icon="true" viewBox="0 0 16 16"><path fill="currentColor" d="M10.166.417a2.75 2.75 0 0 1 2.75 2.75v9.667a2.75 2.75 0 0 1-2.75 2.75H5.833a2.75 2.75 0 0 1-2.75-2.75V3.167a2.75 2.75 0 0 1 2.75-2.75zm-4.333 1.5c-.69 0-1.25.56-1.25 1.25v9.667c0 .69.56 1.25 1.25 1.25h4.333c.69 0 1.25-.56 1.25-1.25V3.167c0-.69-.56-1.25-1.25-1.25zm3.667 9.73a.75.75 0 0 1 0 1.5h-3a.75.75 0 0 1 0-1.5z"/></svg>
